; generated by PrusaSlicer 2.0.0-rc+ on 2019-05-17 at 11:50:50

;

; external perimeters extrusion width = 0.45mm
; perimeters extrusion width = 0.45mm
; infill extrusion width = 0.45mm
; solid infill extrusion width = 0.45mm
; top infill extrusion width = 0.40mm
; first layer extrusion width = 0.42mm

M73 P0 R40
M73 Q0 S41
M201 X1000 Y1000 Z1000 E5000 ; sets maximum accelerations, mm/sec^2
M203 X200 Y200 Z12 E120 ; sets maximum feedrates, mm/sec
M204 P1250 R1250 T1250 ; sets acceleration (P, T) and retract acceleration (R), mm/sec^2
M205 X8.00 Y8.00 Z0.40 E1.50 ; sets the jerk limits, mm/sec
M205 S0 T0 ; sets the minimum extruding and travel feed rate, mm/sec
M107
M115 U3.6.0 ; tell printer latest fw version
G90 ; use absolute coordinates
M83 ; extruder relative mode
M104 S215 ; set extruder temp
M140 S60 ; set bed temp
M190 S60 ; wait for bed temp
M109 S215 ; wait for extruder temp
G28 W ; home all without mesh bed level
G80 ; mesh bed leveling
G1 Y-3.0 F1000.0 ; go outside print area
G92 E0.0
G1 X60.0 E9.0 F1000.0 ; intro line
M73 Q0 S40
M73 P0 R40
G1 X100.0 E12.5 F1000.0 ; intro line
G92 E0.0
M221 S95
M900 K30 ; Filament gcode
G21 ; set units to millimeters
G90 ; use absolute coordinates
M83 ; use relative distances for extrusion
;BEFORE_LAYER_CHANGE
G92 E0.0
;0.2


G1 E-0.80000 F2100.00000
G1 Z0.600 F10800.000
;AFTER_LAYER_CHANGE
;0.2
G1 X99.111 Y93.000
G1 Z0.200
G1 E0.80000 F2100.00000
M204 S1000
G1 F1200
G1 X99.990 Y92.811 E0.02822
G1 X150.004 Y92.811 E1.56813
G1 X150.823 Y92.972 E0.02620
G1 X151.521 Y93.426 E0.02608
G1 X151.998 Y94.107 E0.02608
G1 X152.187 Y94.921 E0.02620
G1 X152.185 Y115.128 E0.63357
G1 X152.069 Y115.714 E0.01873
G1 X151.801 Y116.244 E0.01862
G1 X151.397 Y116.685 E0.01873
G1 X150.889 Y117.000 E0.01873
G1 X150.010 Y117.189 E0.02822
G1 X99.956 Y117.188 E1.56939
G1 X99.349 Y117.089 E0.01930
G1 X98.789 Y116.823 E0.01942
G1 X98.330 Y116.414 E0.01930
G1 X98.000 Y115.889 E0.01942
G1 X97.812 Y115.020 E0.02788
G1 X97.814 Y94.894 E0.63105
G1 X97.925 Y94.303 E0.01885
G1 X98.193 Y93.765 E0.01885
G1 X98.600 Y93.318 E0.01896
G1 X99.060 Y93.032 E0.01697
G1 F8640
G1 X99.990 Y92.811 E-0.22089
G1 X102.325 Y92.811 E-0.53911
G1 E-0.04000 F2100.00000
G1 Z0.800 F10800.000
G1 X103.118 Y97.204
G1 Z0.200
G1 E0.80000 F2100.00000
G1 F1200
G1 X103.603 Y96.903 E0.01788
G1 X104.135 Y96.697 E0.01789
G1 X104.700 Y96.592 E0.01802
G1 X105.252 Y96.593 E0.01729
G1 X105.561 Y96.636 E0.00979
G1 X106.096 Y96.788 E0.01745
G1 X106.607 Y97.042 E0.01788
G1 X107.062 Y97.386 E0.01788
G1 X107.446 Y97.807 E0.01788
G1 X107.746 Y98.292 E0.01788
G1 X107.952 Y98.824 E0.01788
G1 X108.056 Y99.384 E0.01788
G1 X108.056 Y99.954 E0.01788
G1 X107.954 Y100.502 E0.01747
G1 X107.853 Y100.802 E0.00994
G1 X107.607 Y101.296 E0.01729
G1 X107.263 Y101.751 E0.01787
G1 X106.842 Y102.135 E0.01788
G1 X106.357 Y102.435 E0.01788
G1 X105.826 Y102.641 E0.01788
G1 X105.265 Y102.746 E0.01788
G1 X104.695 Y102.746 E0.01788
G1 X104.135 Y102.641 E0.01788
G1 X103.616 Y102.440 E0.01745
G1 X103.343 Y102.288 E0.00980
G1 X102.899 Y101.952 E0.01745
G1 X102.515 Y101.531 E0.01788
G1 X102.214 Y101.046 E0.01788
G1 X102.008 Y100.515 E0.01788
G1 X101.904 Y99.954 E0.01788
G1 X101.904 Y99.384 E0.01789
G1 X102.010 Y98.819 E0.01802
G1 X102.210 Y98.305 E0.01729
G1 X102.361 Y98.032 E0.00979
G1 X102.697 Y97.588 E0.01745
G1 X103.074 Y97.244 E0.01600
G1 X103.328 Y97.523 F10800.000
G1 F1200
G1 X103.772 Y97.242 E0.01646
G1 X104.238 Y97.062 E0.01569
G1 X104.735 Y96.970 E0.01583
G1 X105.225 Y96.970 E0.01538
G1 X105.483 Y97.006 E0.00815
G1 X105.959 Y97.141 E0.01553
G1 X106.407 Y97.364 E0.01569
G1 X106.806 Y97.666 E0.01569
G1 X107.143 Y98.035 E0.01569
G1 X107.407 Y98.461 E0.01569
G1 X107.587 Y98.927 E0.01569
G1 X107.679 Y99.419 E0.01569
G1 X107.679 Y99.919 E0.01569
G1 X107.588 Y100.406 E0.01554
G1 X107.504 Y100.657 E0.00830
G1 X107.285 Y101.096 E0.01538
G1 X106.983 Y101.495 E0.01568
G1 X106.614 Y101.832 E0.01569
G1 X106.188 Y102.096 E0.01569
G1 X105.722 Y102.277 E0.01569
G1 X105.230 Y102.368 E0.01569
G1 X104.730 Y102.368 E0.01569
G1 X104.238 Y102.277 E0.01569
G1 X103.776 Y102.098 E0.01553
G1 X103.549 Y101.971 E0.00815
G1 X103.154 Y101.672 E0.01553
G1 X102.817 Y101.303 E0.01569
G1 X102.553 Y100.877 E0.01569
G1 X102.373 Y100.411 E0.01569
G1 X102.281 Y99.919 E0.01569
G1 X102.281 Y99.419 E0.01569
G1 X102.374 Y98.923 E0.01583
G1 X102.552 Y98.465 E0.01538
G1 X102.678 Y98.238 E0.00815
G1 X102.977 Y97.843 E0.01553
G1 X103.284 Y97.563 E0.01302
G1 X103.276 Y97.126 F10800.000
G1 F8640
G1 X103.772 Y97.242 E-0.13487
G1 X104.238 Y97.062 E-0.11555
G1 X104.735 Y96.970 E-0.11658
G1 X105.225 Y96.970 E-0.11329
G1 X105.483 Y97.006 E-0.06004
G1 X105.959 Y97.141 E-0.11438
G1 X106.368 Y97.345 E-0.10530
G1 E-0.04000 F2100.00000
G1 Z0.800 F10800.000
G1 X110.068 Y98.763
G1 Z0.200
G1 E0.80000 F2100.00000
G1 F1200
G1 X110.235 Y98.248 E0.01697
G1 X110.493 Y97.801 E0.01619
G1 X110.687 Y97.559 E0.00973
G1 X111.079 Y97.206 E0.01653
G1 X111.548 Y96.935 E0.01698
G1 X112.063 Y96.768 E0.01697
G1 X112.576 Y96.713 E0.01619
G1 X112.886 Y96.728 E0.00973
G1 X113.402 Y96.838 E0.01653
G1 X113.897 Y97.058 E0.01698
G1 X114.335 Y97.377 E0.01698
G1 X114.697 Y97.779 E0.01698
G1 X114.968 Y98.248 E0.01698
G1 X115.135 Y98.763 E0.01698
G1 X115.192 Y99.302 E0.01698
G1 X115.135 Y99.840 E0.01698
G1 X114.968 Y100.355 E0.01698
G1 X114.697 Y100.824 E0.01698
G1 X114.335 Y101.227 E0.01698
G1 X113.897 Y101.545 E0.01697
G1 X113.425 Y101.755 E0.01619
G1 X113.126 Y101.837 E0.00973
G1 X112.602 Y101.892 E0.01653
G1 X112.063 Y101.835 E0.01698
G1 X111.548 Y101.668 E0.01698
G1 X111.079 Y101.397 E0.01698
G1 X110.677 Y101.035 E0.01698
G1 X110.358 Y100.597 E0.01698
G1 X110.138 Y100.102 E0.01698
G1 X110.029 Y99.587 E0.01649
G1 X110.013 Y99.286 E0.00946
G1 X110.062 Y98.823 E0.01461
G1 X110.437 Y98.862 F10800.000
G1 F1200
G1 X110.582 Y98.402 E0.01512
G1 X110.805 Y98.014 E0.01404
G1 X110.962 Y97.819 E0.00786
G1 X111.302 Y97.513 E0.01433
G1 X111.702 Y97.282 E0.01449
G1 X112.142 Y97.139 E0.01449
G1 X112.587 Y97.091 E0.01404
G1 X112.838 Y97.104 E0.00786
G1 X113.285 Y97.199 E0.01433
G1 X113.707 Y97.387 E0.01449
G1 X114.081 Y97.658 E0.01449
G1 X114.390 Y98.002 E0.01449
G1 X114.622 Y98.402 E0.01449
G1 X114.764 Y98.842 E0.01449
G1 X114.813 Y99.302 E0.01449
G1 X114.764 Y99.761 E0.01449
G1 X114.622 Y100.201 E0.01449
G1 X114.390 Y100.601 E0.01449
G1 X114.081 Y100.945 E0.01449
G1 X113.707 Y101.216 E0.01449
G1 X113.298 Y101.399 E0.01404
G1 X113.056 Y101.465 E0.00786
G1 X112.602 Y101.513 E0.01433
G1 X112.142 Y101.464 E0.01449
G1 X111.702 Y101.322 E0.01449
G1 X111.302 Y101.090 E0.01449
G1 X110.958 Y100.781 E0.01449
G1 X110.687 Y100.407 E0.01449
G1 X110.499 Y99.985 E0.01449
G1 X110.404 Y99.538 E0.01432
G1 X110.391 Y99.296 E0.00760
G1 X110.430 Y98.922 E0.01180
G1 X110.142 Y98.591 F10800.000
G1 F8640
G1 X110.582 Y98.402 E-0.12492
G1 X110.805 Y98.014 E-0.10343
G1 X110.962 Y97.819 E-0.05792
G1 X111.302 Y97.513 E-0.10555
G1 X111.702 Y97.282 E-0.10674
G1 X112.142 Y97.139 E-0.10671
G1 X112.587 Y97.091 E-0.10343
G1 X112.809 Y97.102 E-0.05130
G1 E-0.04000 F2100.00000
G1 Z0.800 F10800.000
G1 X119.319 Y99.145
G1 Z0.200
G1 E0.80000 F2100.00000
G1 F1200
G1 X119.431 Y98.690 E0.01468
G1 X119.549 Y98.428 E0.00902
G1 X119.815 Y98.042 E0.01468
G1 X120.019 Y97.839 E0.00902
G1 X120.419 Y97.562 E0.01525
G1 X120.890 Y97.384 E0.01580
G1 X121.364 Y97.326 E0.01498
G1 X121.659 Y97.342 E0.00926
G1 X122.132 Y97.459 E0.01528
G1 X122.556 Y97.680 E0.01498
G1 X122.789 Y97.861 E0.00926
G1 X123.112 Y98.226 E0.01529
G1 X123.338 Y98.657 E0.01525
G1 X123.424 Y98.932 E0.00902
G1 X123.480 Y99.397 E0.01468
G1 X123.463 Y99.684 E0.00902
G1 X123.347 Y100.156 E0.01525
G1 X123.121 Y100.586 E0.01525
G1 X122.943 Y100.813 E0.00902
G1 X122.593 Y101.124 E0.01468
G1 X122.346 Y101.273 E0.00902
G1 X121.892 Y101.445 E0.01525
G1 X121.391 Y101.506 E0.01581
G1 X120.891 Y101.445 E0.01581
G1 X120.436 Y101.273 E0.01525
G1 X120.190 Y101.124 E0.00902
G1 X119.826 Y100.801 E0.01523
G1 X119.554 Y100.409 E0.01498
G1 X119.432 Y100.140 E0.00926
G1 X119.319 Y99.684 E0.01473
G1 X119.303 Y99.414 E0.00847
G1 X119.316 Y99.205 E0.00658
G1 X119.692 Y99.227 F10800.000
G1 F1200
G1 X119.789 Y98.814 E0.01333
G1 X119.879 Y98.614 E0.00688
G1 X120.106 Y98.285 E0.01253
G1 X120.261 Y98.130 E0.00688
G1 X120.596 Y97.899 E0.01274
G1 X120.981 Y97.753 E0.01293
G1 X121.377 Y97.704 E0.01249
G1 X121.603 Y97.717 E0.00711
G1 X121.998 Y97.814 E0.01275
G1 X122.351 Y97.999 E0.01249
G1 X122.530 Y98.138 E0.00711
G1 X122.800 Y98.442 E0.01275
G1 X122.988 Y98.802 E0.01274
G1 X123.054 Y99.011 E0.00688
G1 X123.102 Y99.408 E0.01253
G1 X123.089 Y99.627 E0.00688
G1 X122.991 Y100.021 E0.01274
G1 X122.803 Y100.381 E0.01274
G1 X122.667 Y100.554 E0.00688
G1 X122.368 Y100.819 E0.01253
G1 X122.180 Y100.932 E0.00688
G1 X121.801 Y101.076 E0.01274
G1 X121.391 Y101.126 E0.01294
G1 X120.981 Y101.076 E0.01294
G1 X120.602 Y100.932 E0.01274
G1 X120.414 Y100.819 E0.00688
G1 X120.110 Y100.549 E0.01273
G1 X119.883 Y100.222 E0.01249
G1 X119.789 Y100.015 E0.00711
G1 X119.694 Y99.627 E0.01255
G1 X119.688 Y99.287 E0.01065
G1 X119.370 Y98.990 F10800.000
G1 F8640
G1 X119.789 Y98.814 E-0.11184
G1 X119.879 Y98.614 E-0.05064
G1 X120.106 Y98.285 E-0.09231
G1 X120.261 Y98.130 E-0.05064
G1 X120.596 Y97.899 E-0.09379
G1 X120.981 Y97.753 E-0.09524
G1 X121.377 Y97.704 E-0.09201
G1 X121.603 Y97.717 E-0.05233
G1 X121.998 Y97.814 E-0.09387
G1 X122.103 Y97.869 E-0.02734
G1 E-0.04000 F2100.00000
G1 Z0.800 F10800.000
G1 X125.704 Y98.789
G1 Z0.200
G1 E0.80000 F2100.00000
G1 F1200
G1 X125.962 Y98.396 E0.01474
G1 X126.303 Y98.112 E0.01391
G1 X126.528 Y97.996 E0.00795
G1 X126.768 Y97.914 E0.00794
G1 X127.200 Y97.866 E0.01364
G1 X127.642 Y97.946 E0.01406
G1 X127.896 Y98.054 E0.00867
G1 X128.238 Y98.298 E0.01318
G1 X128.422 Y98.503 E0.00863
G1 X128.638 Y98.889 E0.01386
G1 X128.739 Y99.342 E0.01455
G1 X128.707 Y99.783 E0.01386
G1 X128.627 Y100.046 E0.00863
G1 X128.411 Y100.432 E0.01385
G1 X128.099 Y100.734 E0.01363
G1 X127.878 Y100.870 E0.00814
G1 X127.643 Y100.970 E0.00800
G1 X127.229 Y101.047 E0.01318
G1 X126.954 Y101.036 E0.00863
G1 X126.548 Y100.930 E0.01318
G1 X126.303 Y100.804 E0.00863
G1 X125.963 Y100.521 E0.01386
G1 X125.719 Y100.153 E0.01386
G1 X125.621 Y99.896 E0.00863
G1 X125.559 Y99.480 E0.01318
G1 X125.580 Y99.206 E0.00861
G1 X125.687 Y98.846 E0.01176
G1 F8640
G1 X125.962 Y98.396 E-0.12190
G1 X126.303 Y98.112 E-0.10240
G1 X126.528 Y97.996 E-0.05855
G1 X126.768 Y97.914 E-0.05844
G1 X127.200 Y97.866 E-0.10047
G1 X127.642 Y97.946 E-0.10352
G1 X127.896 Y98.054 E-0.06383
G1 X128.238 Y98.298 E-0.09707
G1 X128.393 Y98.472 E-0.05381
G1 E-0.04000 F2100.00000
G1 Z0.800 F10800.000
G1 X126.676 Y98.344
G1 Z0.200
G1 E0.80000 F2100.00000
G1 F1200
G1 X126.851 Y98.284 E0.00578
G1 X127.188 Y98.247 E0.01063
G1 X127.533 Y98.309 E0.01101
G1 X127.710 Y98.385 E0.00604
G1 X127.985 Y98.581 E0.01058
G1 X128.113 Y98.724 E0.00603
G1 X128.282 Y99.025 E0.01082
G1 X128.359 Y99.370 E0.01107
G1 X128.334 Y99.714 E0.01082
G1 X128.278 Y99.898 E0.00603
G1 X128.109 Y100.199 E0.01082
G1 X127.866 Y100.434 E0.01062
G1 X127.704 Y100.535 E0.00597
G1 X127.533 Y100.607 E0.00580
G1 X127.202 Y100.668 E0.01058
G1 X127.010 Y100.661 E0.00603
G1 X126.683 Y100.576 E0.01058
G1 X126.512 Y100.488 E0.00603
G1 X126.247 Y100.267 E0.01082
G1 X126.056 Y99.979 E0.01082
G1 X125.988 Y99.800 E0.00603
G1 X125.939 Y99.466 E0.01058
G1 X125.953 Y99.274 E0.00602
G1 X126.050 Y98.950 E0.01063
G1 X126.246 Y98.649 E0.01125
G1 X126.512 Y98.428 E0.01084
G1 X126.623 Y98.371 E0.00390
G1 X126.694 Y98.161 F10800.000
G1 F8640
G1 X126.851 Y98.284 E-0.05630
G1 X127.188 Y98.247 E-0.07826
G1 X127.533 Y98.309 E-0.08106
G1 X127.710 Y98.385 E-0.04449
G1 X127.985 Y98.581 E-0.07791
G1 X128.113 Y98.724 E-0.04438
G1 X128.282 Y99.025 E-0.07971
G1 X128.359 Y99.370 E-0.08151
G1 X128.334 Y99.714 E-0.07971
G1 X128.278 Y99.898 E-0.04438
G1 X128.109 Y100.199 E-0.07967
G1 X128.070 Y100.237 E-0.01261
G1 E-0.04000 F2100.00000
G1 Z0.800 F10800.000
G1 X130.823 Y99.403
G1 Z0.200
G1 E0.80000 F2100.00000
G1 F1200
G1 X130.966 Y98.998 E0.01346
G1 X131.122 Y98.768 E0.00870
G1 X131.425 Y98.501 E0.01266
G1 X131.672 Y98.376 E0.00869
G1 X132.086 Y98.286 E0.01326
G1 X132.542 Y98.343 E0.01443
G1 X132.927 Y98.537 E0.01351
G1 X133.135 Y98.720 E0.00870
G1 X133.376 Y99.076 E0.01346
G1 X133.490 Y99.516 E0.01426
G1 X133.454 Y99.944 E0.01346
G1 X133.362 Y100.205 E0.00869
G1 X133.126 Y100.556 E0.01326
G1 X132.757 Y100.831 E0.01443
G1 X132.321 Y100.965 E0.01431
G1 X131.866 Y100.945 E0.01426
G1 X131.445 Y100.776 E0.01424
G1 X131.127 Y100.498 E0.01324
G1 X130.967 Y100.264 E0.00888
G1 X130.823 Y99.857 E0.01352
G1 X130.823 Y99.463 E0.01238
G1 X131.306 Y99.169 F10800.000
G1 F1200
G1 X131.407 Y99.019 E0.00567
G1 X131.638 Y98.816 E0.00963
G1 X131.799 Y98.734 E0.00567
G1 X132.103 Y98.668 E0.00974
G1 X132.431 Y98.709 E0.01037
G1 X132.714 Y98.852 E0.00994
G1 X132.850 Y98.971 E0.00567
G1 X133.027 Y99.233 E0.00992
G1 X133.109 Y99.548 E0.01021
G1 X133.082 Y99.864 E0.00992
G1 X133.022 Y100.034 E0.00567
G1 X132.849 Y100.292 E0.00974
G1 X132.584 Y100.490 E0.01037
G1 X132.272 Y100.585 E0.01022
G1 X131.947 Y100.571 E0.01021
G1 X131.645 Y100.450 E0.01020
G1 X131.411 Y100.245 E0.00974
G1 X131.306 Y100.092 E0.00584
G1 X131.200 Y99.793 E0.00994
G1 X131.200 Y99.467 E0.01021
G1 X131.286 Y99.225 E0.00804
G1 X131.204 Y99.019 F10800.000
G1 F8640
G1 X131.407 Y99.019 E-0.05531
G1 X131.638 Y98.816 E-0.07095
G1 X131.799 Y98.734 E-0.04175
G1 X132.103 Y98.668 E-0.07176
G1 X132.431 Y98.709 E-0.07634
G1 X132.714 Y98.852 E-0.07318
G1 X132.850 Y98.971 E-0.04179
G1 X133.027 Y99.233 E-0.07306
G1 X133.109 Y99.548 E-0.07516
G1 X133.082 Y99.864 E-0.07306
G1 X133.022 Y100.034 E-0.04175
G1 X132.863 Y100.271 E-0.06588
G1 E-0.04000 F2100.00000
G1 Z0.800 F10800.000
G1 X135.234 Y99.083
G1 Z0.200
G1 E0.80000 F2100.00000
G1 F1200
G1 X135.425 Y98.754 E0.01194
G1 X135.696 Y98.526 E0.01111
G1 X135.914 Y98.424 E0.00755
G1 X136.256 Y98.363 E0.01088
G1 X136.637 Y98.427 E0.01212
G1 X136.969 Y98.618 E0.01201
G1 X137.213 Y98.910 E0.01194
G1 X137.335 Y99.243 E0.01111
G1 X137.354 Y99.458 E0.00677
G1 X137.335 Y99.673 E0.00677
G1 X137.213 Y100.006 E0.01111
G1 X136.969 Y100.298 E0.01194
G1 X136.639 Y100.488 E0.01194
G1 X136.264 Y100.554 E0.01194
G1 X135.889 Y100.488 E0.01194
G1 X135.560 Y100.298 E0.01194
G1 X135.315 Y100.006 E0.01194
G1 X135.194 Y99.673 E0.01111
G1 X135.173 Y99.432 E0.00758
G1 X135.224 Y99.142 E0.00923
G1 F8640
G1 X135.425 Y98.754 E-0.10103
G1 X135.696 Y98.526 E-0.08185
G1 X135.914 Y98.424 E-0.05563
G1 X136.256 Y98.363 E-0.08011
G1 X136.637 Y98.427 E-0.08926
G1 X136.969 Y98.618 E-0.08843
G1 X137.213 Y98.910 E-0.08790
G1 X137.335 Y99.243 E-0.08185
G1 X137.354 Y99.458 E-0.04983
G1 X137.337 Y99.648 E-0.04411
G1 E-0.04000 F2100.00000
G1 Z0.800 F10800.000
G1 X136.975 Y99.458
G1 Z0.200
G1 E0.80000 F2100.00000
G1 F1200
G1 X136.963 Y99.591 E0.00418
G1 X136.882 Y99.815 E0.00747
G1 X136.723 Y100.005 E0.00777
G1 X136.508 Y100.128 E0.00777
G1 X136.264 Y100.171 E0.00777
G1 X136.020 Y100.128 E0.00777
G1 X135.806 Y100.005 E0.00777
G1 X135.647 Y99.815 E0.00777
G1 X135.565 Y99.591 E0.00747
G1 X135.553 Y99.449 E0.00447
G1 X135.594 Y99.214 E0.00747
G1 X135.718 Y99.000 E0.00777
G1 X135.900 Y98.846 E0.00747
G1 X136.029 Y98.786 E0.00446
G1 X136.258 Y98.745 E0.00728
G1 X136.507 Y98.787 E0.00793
G1 X136.723 Y98.912 E0.00779
G1 X136.882 Y99.102 E0.00777
G1 X136.963 Y99.325 E0.00747
G1 X136.970 Y99.398 E0.00229
G1 X137.092 Y99.522 F10800.000
G1 F8640
G1 X136.963 Y99.591 E-0.04446
G1 X136.882 Y99.815 E-0.05503
G1 X136.723 Y100.005 E-0.05720
G1 X136.508 Y100.128 E-0.05720
G1 X136.264 Y100.171 E-0.05720
G1 X136.020 Y100.128 E-0.05720
G1 X135.806 Y100.005 E-0.05720
G1 X135.647 Y99.815 E-0.05720
G1 X135.565 Y99.591 E-0.05503
G1 X135.553 Y99.449 E-0.03289
G1 X135.594 Y99.214 E-0.05503
G1 X135.718 Y99.000 E-0.05720
G1 X135.900 Y98.846 E-0.05503
G1 X136.029 Y98.786 E-0.03283
G1 X136.154 Y98.764 E-0.02933
G1 E-0.04000 F2100.00000
G1 Z0.800 F10800.000
G1 X140.356 Y99.542
G1 Z0.200
G1 E0.80000 F2100.00000
G1 F1200
G1 X140.412 Y99.226 E0.01005
G1 X140.559 Y98.972 E0.00921
